!!!SOCIAL_FUNCTION:	songs for little children
!!!PDT:	1939
!!!OTL: No_118_"I_Wish_I_Was_Out_on_the_Rocks".krn
!!!LANG: Non-Tone
!!!LING_GROUP: Wakashan
!!!REG: Pacific Northwest
**kern
*staff1
=1-
*clefF4
*k[f#c#g#d#]
*M2/4
4r
8.G#\L
16G#\Jk
=2
4B\
4r
=3
4B\
8.c#\L
16B\Jk
=4||
*M3/4
8B\L
[8B\J
4B\]
16A#\LL
16G#\J
8A#\J
=5||
*M2/4
4B\
4r
=6||
*M3/4
4B\
16A#\LL
16G#\
16A#\
16B\JJ
8G#\
8r
=7||
*M2/4
16B\LK
8.G#\J
16G#\LK
8.F#\J
=8
2E\
=9
12G#\L
12F#\
12F#\J
12G#\L
12F#\
12F#\J
=10
8.E\L
16G#\Jk
12G#\L
12F#\
12E\J
=11
8F#\L
8E\J
8E\
8r
=12
4E\
4F#;\
=13
16G#\LK
8.G#\J
16F#\LK
8.E\J
=14||
*M3/4
12F#\L
12E\
12E\J
8E\L
8E\J
8E\
8r
=15||
*M2/4
4E\
12F#\L
12F#\
12F#\J
=16||
*M3/4
8E\L
8E\J
12E\L
12E\
12E\J
4E\
=17
2.E\
=18||
2.r
=19||
*M2/4
16B\LK
8.G#\J
12G#\L
12F#\
12E\J
=20||
*M3/4
8F#\L
8E\J
8E\L
8E\J
8E\
8r
=21||
*M2/4
4F#\
4E;\
=22
8F#\L
8F#\J
4E\
=23
8F#\L
8E\J
8E\
8r
=24
8F#\L
[8E\J
4E\]
=25
4G#\
4G#\
==
*-
